X: 1
T: On The Danforth
R: march
M: 4/4
L: 1/8
K: Amaj
|: c3 d c2 BA | B2 c2 F4 | A2 B2 c2 BA | B2 c2 c2 B2 |
c3 d c2 BA | B2 c2 F4 | A2 B2 c2 BA | B2 G2 A4 :|
|: e3 f e2 d2 | c2 A2 B2 d2 | cB A2 B2 d2 | cB A2 B2 E2 |
e3 f e2 d2 | c2 A2 B2 d2 | cB A2 B2 G2 | A8 :|